!!!!SEGMENT: pl-kk--kk-i-482--008_zieleniewicz-mathias--msza-2ga-sanctus.krn
!!!cenid: 17xx:1916
!!!COM: Zieleniewicz, Mathias
!!!COM-rismid: pe50045913
!!!CDT: <1724->1763
!!!CNT: Polish
!!!OPR: Msza 2ga
!!!OTL: Sanctus
!!!OMV: 003
!!!PDT: 1724
!!!AGN: Sacred; Mass
!!!SMS-siglum: PL-Kk
!!!SMS-shelfmark: Kk.I.482
!!!SMS-shelfwork: 002-003 M
!!!SMS-variant: Soprano.:pl-kk-kk-i-482:16 Alto.:pl-kk-kk-i-482:20 Tenore.:pl-kk-kk-i-482:26 Basso.:pl-kk-kk-i-482:30
!!!SMS-altvar: [Partytura]:pl-kk-kk-i-482:8-9 Soprano:pl-kk-kk-i-482:36 Alto.:pl-kk-kk-i-482:40 Tenore.:pl-kk-kk-i-482:45
!!!NIFC-rismid: 1001140324
!!!URL-scan: http://repozytorium.nifc.pl/skany/pl-kk-nut--i-482
!!!ONB-nifc: UWAGA: zakres skanów 0015-0031. Proszę uzupełnić pola !!!SMS dot. partytury i głosów. UWAGA: w zbiorze Msza Isza i Msza 2ga. Części Mszy 2giej: 6. Kyrie, 7. Gloria, 8. Sanctus, 9. Benedictus, 10. Agnus
**kern	**text	**kern	**text	**kern	**text	**kern	**text
*part4	*part4	*part3	*part3	*part2	*part2	*part1	*part1
*staff4	*staff4	*staff3	*staff3	*staff2	*staff2	*staff1	*staff1
*Ibass	*	*Itenor	*	*Ialto	*	*Isoprn	*
*I"Basso.	*	*I"Tenore.	*	*I"Alto.	*	*I"Soprano.	*
*I'B	*	*I'T	*	*I'A	*	*I'S	*
*group1	*	*group1	*	*group1	*	*group1	*
*clefC3	*	*clefC4	*	*clefC3	*	*clefC1	*
*k[b-]	*	*k[b-]	*	*k[b-]	*	*k[b-]	*
*d:	*	*d:	*	*d:	*	*d:	*
*M2/2	*	*M2/2	*	*M2/2	*	*M2/2	*
*met(c|)	*	*met(c|)	*	*met(c|)	*	*met(c|)	*
=1	=1	=1	=1	=1	=1	=1	=1
*2\right	*	*	*	*2\right	*	*	*
*^	*	*	*	*	*	*	*
!LO:TX:b:t=1.	!	!	!	!	!	!	!	!
!LO:TX:t=P:problem:cue notes	!	!	!	!	!	!	!LO:TX:t=P:problem:all\right:global	!
!LO:TX:t=P:problem:błędny klucz	!	!	!LO:TX:a:t=4.	!	!	!	!LO:TX:a:t=2	!
2r	1r	.	00r	.	2r	.	0r	.
!LO:TX:a:t=Alto	!	!	!	!	!	!	!	!
2f/	.	San-	.	.	2f\	San-	.	.
=2	=2	=2	=2	=2	=2	=2	=2	=2
!LO:TX:b:t=2.	!	!	!	!	!	!	!	!
2g/	1r	.	.	.	2g\	.	.	.
2a/	.	.	.	.	2a\	.	.	.
=3	=3	=3	=3	=3	=3	=3	=3	=3
*	*	*	*	*	*	*	*2\right	*
!LO:TX:b:t=3.	!	!	!	!	!	!	!	!
2d/	1r	-ctus	.	.	2d\	-ctus	2r	.
*clefC1	*	*	*	*	*	*	*	*
!LO:TX:a:t=Sopran	!	!	!	!	!	!	!	!
2cc#X/	.	San-	.	.	[2a\	San-	2cc#X\	San-
=4	=4	=4	=4	=4	=4	=4	=4	=4
!LO:TX:b:t=4.	!	!	!	!	!	!	!	!
2dd/	1r	.	.	.	2a\]	.	2dd\	.
2ee/	.	.	.	.	[2g\	-ctus	2ee\	.
=5	=5	=5	=5	=5	=5	=5	=5	=5
!	!	!	!LO:TX:t=P:problem:brak tt.5-6	!	!	!	!	!
2a/	2r	-ctus	1ryy	.	2g\]	.	2a\	-ctus
*clefF4	*	*	*	*	*	*	*	*
!LO:SIC:v:n=1 s=2dd	!	!	!	!	!	!	!	!
!LO:TX:a:t=Bas	!	!	!	!	!	!	!	!
2A/	2F\	San-	.	.	2f\	San-	[2dd\	San-
*v	*v	*	*	*	*	*	*	*
=6	=6	=6	=6	=6	=6	=6	=6
2G\	.	1ryy	.	1e	.	2dd\]	.
2A\	.	.	.	.	.	2cc#X\	.
=7	=7	=7	=7	=7	=7	=7	=7
*	*	*2\right	*	*	*	*	*
2D\	-ctus	2r	.	2f\	-ctus,	2dd\	-ctus,
(2A\	San-	2c#X\	San-	2e\	San-	2r	.
!LO:LB:g=original	!	!	!	!	!	!	!
=8	=8	=8	=8	=8	=8	=8	=8
!LO:TX:t=P:problem:zbędny takt nr 8	!	!	!	!	!	!	!
!LO:TX:t=P:problem:takt 8 przekreślony ołówkiem	!	!	!	!	!	!	!
!LO:TX:t=P:problem:brak dokończenia łuku	!	!LO:TX:t=P:problem:zbędny takt 8 w B	!	!LO:TX:t=P:problem:zbędny takt 8 w B	!	!LO:TX:t=P:problem:zbędny takt 8 w B	!
2D\)	-ctus,	1ryy	.	1ryy	.	1ryy	.
[2A\	San-	.	.	.	.	.	.
=9	=9	=9	=9	=9	=9	=9	=9
2A\]	.	2d\	.	2d\	.	1b-X	Do-
[2G\	-ctus	2e\	.	2g\	-ctus	.	.
!	!	!	!	!LO:LB:g=original	!	!	!
=10	=10	=10	=10	=10	=10	=10	=10
2G\]	.	2A\	-ctus	2c#X\	San-	1a	.
2F\	San-	[2d\	Do-	2d\	.	.	.
=11	=11	=11	=11	=11	=11	=11	=11
1E	.	2d\]	.	1e	.	1g	.
.	.	2c#X\	-mi-	.	.	.	.
=12	=12	=12	=12	=12	=12	=12	=12
2F\	-ctus	1d	-nus	2A/	-ctus	1f	.
[2D\	Do-	.	.	4a\	San-	.	.
.	.	.	.	4a\	-ctus	.	.
=13	=13	=13	=13	=13	=13	=13	=13
2D\]	.	2e\	Do-	2g\	Do-	2b-X\	.
4C#X/	-mi-	4e\	-mi-	4g\	-mi-	4b-\	-mi-
4C#/	-nus	4e\	-nus	4g\	-nus	4b-\	-nus
!	!	!	!	!	!	!LO:LB:g=original	!
=14	=14	=14	=14	=14	=14	=14	=14
2D/	De-	2f\	De-	2f\	De-	2a\	De-
2Cn/	-us	2A\	-us	2e\	-us	2a\	-us
!	!	!LO:LB:g=original	!	!	!	!	!
=15	=15	=15	=15	=15	=15	=15	=15
2.BB-X/	sa-	2.d\	sa-	2f\	sa-	2a\	sa-
.	.	.	.	2d\	-ba-	2g\	-ba-
4BB-/	-ba-	4d\	-ba-	.	.	.	.
=16	=16	=16	=16	=16	=16	=16	=16
!LO:TX:a:t=2	!	!	!	!	!	!LO:TX:a:t=2	!
0AA	-ot.	0c#X	-ot.	0e	-ot,	0a	-ot.
=17	=17	=17	=17	=17	=17	=17	=17
.	.	.	.	.	.	.	.
!LO:LB:g=original	!	!	!	!	!	!	!
=18||	=18||	=18||	=18||	=18||	=18||	=18||	=18||
!LO:TX:t=P:problem:przypominające ozn. metryczne	!	!LO:TX:a:t=2	!	!LO:TX:a:t=1.	!	!LO:TX:a:t=1.	!
1A	Ple-	0r	.	1r	.	1r	.
=19	=19	=19	=19	=19	=19	=19	=19
2F#X\	-ni	.	.	2a\	Ple-	1dd	Ple-
2F#\	sunt	.	.	2a\	-ni	.	.
=20	=20	=20	=20	=20	=20	=20	=20
1D	cel-	2d\	Ple-	1f#X	sunt	2dd\	-ni
.	.	2d\	-ni	.	.	2dd\	sunt
!	!	!	!	!LO:LB:g=original	!	!	!
=21	=21	=21	=21	=21	=21	=21	=21
1G	-li	1d	sunt	2d\	cel-	1bn	cel-
.	.	.	.	2d\	-li	.	.
=22	=22	=22	=22	=22	=22	=22	=22
!LO:N:xstem:cue	!	!	!	!	!	!	!
2G\	.	1Bn	cel-	1g	Ple-	2g\	-li
2G\	et	.	.	.	.	2g\	et
=23	=23	=23	=23	=23	=23	=23	=23
1E	ter-	2G/	-li	2g\	-ni	1cc	ter-
.	.	2G/	et	2g\	sunt	.	.
=24	=24	=24	=24	=24	=24	=24	=24
1C	-ra	1c	ter-	1e	cel-	2cc\	-ra
.	.	.	.	.	.	2cc\	ple-
=25	=25	=25	=25	=25	=25	=25	=25
1F	glo-	2c\	-ra	1c	-li	1a	-ni
.	.	2c\	et	.	.	.	.
=26	=26	=26	=26	=26	=26	=26	=26
2F\	-ri-	1A	ter-	[1f	et	1f	sunt
2F\	-a	.	.	.	.	.	.
!	!	!	!	!	!	!LO:LB:g=original	!
=27	=27	=27	=27	=27	=27	=27	=27
2D\	tu-	2F/	-ra	2f\]	.	2b-\	ce-
2E\	.	2c\	glo-	[2g\	ter-	4b-\	-li
.	.	.	.	.	.	4b-\	et
!LO:LB:g=original	!	!LO:LB:g=original	!	!	!	!	!
=28	=28	=28	=28	=28	=28	=28	=28
1F	.	2c\	.	2g\]	.	1a	ter-
.	.	4c\	-ri-	[2f\	.	.	.
.	.	4c\	-a	.	.	.	.
=29	=29	=29	=29	=29	=29	=29	=29
1C	-a,	2c\	tu-	2f\]	.	2g\	-ra,
.	.	2c\	-a	2e\	-ra,	2g\	glo-
=30	=30	=30	=30	=30	=30	=30	=30
2r	.	2r	.	2r	.	2cc\	-ri-
2AA/	glo-	2e\	glo-	[2a\	glo-	2cc#X\	-a
=31	=31	=31	=31	=31	=31	=31	=31
1D	.	2f\	-ri-	2a\]	.	4dd\	glo-
.	.	.	.	.	.	4d/	-ri-
.	.	2d\	-a	2f\	.	[2a\	-a
!	!	!	!	!LO:LB:g=original	!	!	!
=32	=32	=32	=32	=32	=32	=32	=32
2G\	-ri-	2d\	glo-	2.b-X\	.	2a\]	.
2G\	-a	4e\	-ri-	.	.	[2g\	glo-
.	.	4d\	-a	4b-\	-ri-	.	.
=33	=33	=33	=33	=33	=33	=33	=33
1A	tu-	2c#X\	tu-	2e\	-a,	2g\]	.
.	.	2d\	-a	2d\	tu-	4f/	-ri-
.	.	.	.	.	.	4f/	-a
=34	=34	=34	=34	=34	=34	=34	=34
1AA	.	1A	tu-	2d\	.	1e	tu-
.	.	.	.	2c#X\	.	.	.
=35	=35	=35	=35	=35	=35	=35	=35
!LO:TX:a:t=2	!	!LO:TX:a:t=2	!	!	!	!	!
0D	-a.	0A	-a,	0d	-a,	0f#X	-a.
=36	=36	=36	=36	=36	=36	=36	=36
.	.	.	.	.	.	.	.
!	!	!	!	!	!	!LO:LB:g=original	!
=37||	=37||	=37||	=37||	=37||	=37||	=37||	=37||
*M3/2	*	*M3/2	*	*M3/2	*	*M3/2	*
4D\	O-	1.d	O-	1.f	O-	1.a	O-
4C#X\	.	.	.	.	.	.	.
4D\	.	.	.	.	.	.	.
4E\	.	.	.	.	.	.	.
4F\	.	.	.	.	.	.	.
4G\	.	.	.	.	.	.	.
!LO:LB:g=original	!	!	!	!	!	!	!
=38	=38	=38	=38	=38	=38	=38	=38
4A\	san-	2d\	-san-	2e\	-san-	2a\	-san-
4AA/	.	.	.	.	.	.	.
4C#X/	.	2c#X\	-na	2e\	-na	2a\	-na
4BBn/	.	.	.	.	.	.	.
4C#/	.	2c#\	o-	2e\	o-	2a\	o-
4AA/	-na	.	.	.	.	.	.
!	!	!LO:LB:g=original	!	!	!	!	!
=39	=39	=39	=39	=39	=39	=39	=39
4D\	o-	1d	-san-	2.f\	-san-	2.a\	-san-
4C#X\	.	.	.	.	.	.	.
4D\	.	.	.	.	.	.	.
4E\	.	.	.	4g\	.	4g\	.
4F\	.	2d\	-na	2a\	-na	2f/	-na
4D\	.	.	.	.	.	.	.
=40	=40	=40	=40	=40	=40	=40	=40
4E\	-san-	2cn\	o-	(2e\	in	1g	in
4Cn\	.	.	.	.	.	.	.
4F/	.	2c\	-san-	2c\)	.	.	.
4C/	.	.	.	.	.	.	.
4AA/	.	2c\	-na	[2f\	ex-	2a\	ex-
4FF/	-na	.	.	.	.	.	.
=41	=41	=41	=41	=41	=41	=41	=41
2BB-X/	in	2d\	in	1f]	.	1.g	-cel-
1C	ex-	1c	ex-	.	.	.	.
.	.	.	.	2e\	-cel-	.	.
!	!	!	!	!LO:LB:g=original	!	!	!
=42	=42	=42	=42	=42	=42	=42	=42
4F\	-cel-	1c	-cel-	2f\	-sis,	1a	-sis,
4E\	.	.	.	.	.	.	.
4F\	.	.	.	1f	O-	.	.
4G\	.	.	.	.	.	.	.
4A\	.	2c\	-sis	.	.	2a\	o-
4F\	-sis	.	.	.	.	.	.
!LO:LB:g=original	!	!	!	!	!	!	!
=43	=43	=43	=43	=43	=43	=43	=43
4c\	o-	1c	in	2f\	-san-	2.g\	-san-
4d\	.	.	.	.	.	.	.
4c\	.	.	.	2e\	-na	.	.
4B-X\	.	.	.	.	.	4g\	-na
4A\	san-	2c\	ex-	2f\	O-	2a\	o-
4F\	-na	.	.	.	.	.	.
=44	=44	=44	=44	=44	=44	=44	=44
1B-	in	1d	-cel-	1f	-san-	2f/	-san-
.	.	.	.	.	.	1b-X	-na
2G\	ex-	2e\	-sis,	2g\	-na	.	.
=45	=45	=45	=45	=45	=45	=45	=45
4A\	-cel-	2c#X\	o-	2e\	o-	1a	in
4B-\	.	.	.	.	.	.	.
4A\	.	2c#\	-san-	2e\	-san-	.	.
4G\	.	.	.	.	.	.	.
4F\	.	2d\	-na	2f\	-na	2a\	ex-
4D\	-sis,	.	.	.	.	.	.
!	!	!	!	!	!	!LO:LB:g=original	!
=46	=46	=46	=46	=46	=46	=46	=46
1G	in	1B-X	in	1d	in	1g	-cel-
2D\	ex-	2A\	ex-	2d\	ex-	2f/	.
!	!	!LO:LB:g=original	!	!	!	!	!
=47	=47	=47	=47	=47	=47	=47	=47
1A	-cel-	1.A	-cel-	1d	-cel-	1e	-sis,
2AA/	.	.	.	2c#X\	.	2e/	o-
=48	=48	=48	=48	=48	=48	=48	=48
2D\	sis.	2A\	-sis,	2d\	-sis,	2f#X/	-san-
2r	.	4F/	o-	2r	.	2a\	.
.	.	4G/	.	.	.	.	.
2r	.	4A/	.	2r	.	2a\	-na
.	.	4B-X/	.	.	.	.	.
=49	=49	=49	=49	=49	=49	=49	=49
!LO:TX:a:t=1.	!	!	!	!	!	!	!
1.r	.	2c\	-san-	2r	.	2.g/	in
.	.	2c\	-na	4c\	o-	.	.
.	.	.	.	4d\	.	4f/	.
.	.	2c\	O-	4e\	.	2e/	ex-
.	.	.	.	4f\	.	.	.
!LO:LB:g=original	!	!	!	!LO:LB:g=original	!	!	!
=50	=50	=50	=50	=50	=50	=50	=50
2r	.	1Bn	-san-	2g\	-san-	1.d	-cel-
4GG/	o-	.	.	2g\	-na	.	.
4AA/	.	.	.	.	.	.	.
4BBn/	.	2B\	-na	2g\	O-	.	.
4C/	.	.	.	.	.	.	.
=51	=51	=51	=51	=51	=51	=51	=51
!	!	!LO:TX:a:t=1.	!	!	!	!	!
2D\	-san-	1.r	.	2.f\	-san-	2d/	-sis,
2D\	-na	.	.	.	.	4d/	o-
.	.	.	.	4e\	.	4e/	.
2D\	o-	.	.	2d\	-na	4f/	.
.	.	.	.	.	.	4g/	.
=52	=52	=52	=52	=52	=52	=52	=52
2.C/	-san-	2c\	o-	2e\	O-	1a	-san-
.	.	2c\	-san-	2e\	-san-	.	.
4BB-X/	.	.	.	.	.	.	.
2AA/	-na	2c\	-na,	2e\	-na	2a\	-na
=53	=53	=53	=53	=53	=53	=53	=53
1E	in	2Bn\	o-	1e	in	1g#X	in
.	.	2B\	-san-	.	.	.	.
2F\	ex-	(4A\	-na	2c\	ex-	2a\	ex-
.	.	4c\)	.	.	.	.	.
!	!	!	!	!	!	!LO:LB:g=original	!
=54	=54	=54	=54	=54	=54	=54	=54
1D	-cel-	1.Bn	in	1f	-cel-	1a	-cel-
2E\	.	.	.	2e\	.	2g#X\	.
!	!	!LO:LB:g=original	!	!	!	!	!
=55	=55	=55	=55	=55	=55	=55	=55
2AA/	-sis	2c\	.	2e\	-sis,	2a\	-sis,
2D/	in	2d\	.	2f\	in	2a\	in
2C#X/	ex-	2e\	ex-	2e\	ex-	2a\	ex-
=56	=56	=56	=56	=56	=56	=56	=56
1.D	-cel-	1.d	-cel-	4f\	-cel-	4a\	-cel-
.	.	.	.	4e\	.	4g\	.
.	.	.	.	4f\	.	4a\	.
.	.	.	.	4d\	.	4f\	.
.	.	.	.	4e\	.	4g\	.
.	.	.	.	4f\	.	4a\	.
!LO:LB:g=original	!	!	!	!	!	!	!
=57	=57	=57	=57	=57	=57	=57	=57
1.D	-sis,	1.d	-sis	4g\	.	4b-\	.
.	.	.	.	4f\	.	4a\	.
!	!	!	!	!LO:LB:g=original	!	!	!
.	.	.	.	4g\	.	4b-\	.
.	.	.	.	4e\	.	4g\	.
.	.	.	.	4f\	.	4a\	.
.	.	.	.	4g\	.	4b-\	.
=58	=58	=58	=58	=58	=58	=58	=58
1.D	o-	1.d	o-	4f\	.	4a\	.
.	.	.	.	4e\	.	4g\	.
.	.	.	.	4f\	.	4a\	.
.	.	.	.	4d\	.	4f\	.
.	.	.	.	4e\	.	4g\	.
.	.	.	.	4f\	.	4a\	.
=59	=59	=59	=59	=59	=59	=59	=59
!LO:TX:t=P:problem:zbędny takt 59 w T	!	!LO:TX:t=P:problem:zbędny takt 59	!	!LO:TX:t=P:problem:zbędny takt 59 w T	!	!LO:TX:t=P:problem:zbędny takt 59 w T	!
1.ryy	.	1.d	-san-	1.ryy	.	1.ryy	.
=60	=60	=60	=60	=60	=60	=60	=60
!	!	!LO:SIC:v:s=2c#	!	!	!	!	!
2AA/	-san-	2c\	-na	2e\	-sis,	2a\	-sis,
!	!	!LO:SIC:v:s=2c#	!	!	!	!	!
2A\	.	2c\	in	2e\	in	2cc#X\	in
2G\	-na	2A\	ex-	2e\	ex-	2cc#\	ex-
!	!	!	!	!	!	!LO:LB:g=original	!
=61	=61	=61	=61	=61	=61	=61	=61
2.F\	in	1A	-cel-	2.f\	-cel-	2.dd\	-cel-
4E\	.	.	.	4g\	-sis	4ee\	-sis
2D\	ex-	2d\	.	2a\	in	2ff\	in
=62	=62	=62	=62	=62	=62	=62	=62
2G\	-cel-	1d	.	1g	ex-	1ee	ex-
2A\	.	.	.	.	.	.	.
2AA/	.	2c#X\	.	2e\	-cel-	2ee\	-cel-
=63	=63	=63	=63	=63	=63	=63	=63
!LO:N:vis=0	!	!	!	!LO:N:vis=0	!	!LO:N:vis=0	!
0.D	-sis.	1.d	-sis.	0.f#X	-sis.	0.dd	-sis.
=64	=64	=64	=64	=64	=64	=64	=64
!	!	!LO:TX:t=P:problem:brak taktu 64	!	!	!	!	!
.	.	1.ryy	.	.	.	.	.
==	==	==	==	==	==	==	==
*-	*-	*-	*-	*-	*-	*-	*-
!!!system-decoration: [(g1)]
!!!ENC:Anna Matuszewska
!!!END:2021-02-01
!!!ENC: Krzysztof Stępień
!!!END: 2021-01-19
